Adwaita++-Light/panel/24/battery-low-charging.svg

<svg height="24" width="24" xmlns="http://www.w3.org/2000/svg">
  <g fill="#444" transform="translate(1 1)">
    <path d="m9 4v1h-3v12c0 .55.446 1 1 1h8c.554 0 1-.45 1-1v-12h-3v-1zm2 4v3h3l-3 5v-3h-3z" opacity=".3"/>
    <path d="m6 13v4c0 .55.446 1 1 1h8c.554 0 1-.45 1-1v-4h-3.199l-1.801 3v-3h-3z"/>
  </g>
</svg>

<svg xmlns="http://www.w3.org/2000/svg" width="24" height="24" version="1.1">
 <defs>
  <style id="current-color-scheme" type="text/css">
   .ColorScheme-Text { color:#444444; } .ColorScheme-Highlight { color:#4285f4; }
  </style>
 </defs>
 <g transform="matrix(1,0,0,1,1,1)">
  <path style="opacity:0.3;fill:currentColor" class="ColorScheme-Text" d="M 9,4 V 5 H 6 V 17 C 6,17.55 6.446,18 7,18 H 15 C 15.554,18 16,17.55 16,17 V 5 H 13 V 4 Z M 11,8 V 11 H 14 L 11,16 V 13 H 8 Z"/>
  <path style="fill:currentColor" class="ColorScheme-Text" d="M 6 13 L 6 17 C 6 17.55 6.446 18 7 18 L 15 18 C 15.554 18 16 17.55 16 17 L 16 13 L 12.801 13 L 11 16 L 11 13 L 8 13 L 6 13 z"/>
 </g>
</svg>
